X:1
T:Title
%%score 1 { 2 | 3 }
L:1/8
Q:1/4=96
M:3/4
K:Db
V:1 treble nm="Grand Piano, Soprano"
V:2 bass nm="Choir Pad, Ordu, Charles Gabriel, 1913"
V:3 bass 
V:1
 [DF]3 [DF] [DE]D | [DF][FA] [FA]4 | [FA][DF] [DF]4 | [CE]D D4 | [DF]3 [DF] [DE]D | %5
w: By~Charles~Hutchinson~Gabriel,~1913 * * *|||||
 [DF][FA] [FA]4 | [Fd][FA] [FA]3 [DF] | [CE]D D4 | [Fd]3 [Ge] [Fd][FA] | [GB][Gd] [FA]4 | %10
w: |||||
 [Fd]3 [Ge] [Fd][FA] | [DF]D [CE]4 | [DF]3 [DF] [DE]D | [DF][FA] [FA]4 | [Fd][FA] [FA]3 [DF] | %15
w: |||||
 [CE][A,D] [A,D]4- | [A,D]4 z2 |] %17
w: ||
V:2
 A,3 A, G,F, | A,[K:treble]D D4 | DA, A,4 | G,F, F,4 | A,3 A, G,F, | A,[K:treble]D D4 | %6
 A,D D3[K:bass] A, | G,F, F,4 | A,3 A, A,[K:treble]D | DD D4 | A,3[K:bass] A, A,D | A,F, A,4 | %12
 A,3 A, G,F, | A,[K:treble]D D4 | A,D D3[K:bass] A, | G,F, F,4- | F,4 z2 |] %17
V:3
 D,3 D, D,D, | D,D, D,4 | D,D, D,4 | A,,D, D,4 | D,3 D, D,D, | D,D, D,4 | D,D, D,4 | A,,D, D,4 | %8
 D,3 D, D,D, | G,,B,, D,4 | D,3 D, D,D, | D,D, A,,4 | D,3 D, D,D, | D,D, D,4 | D,D, D,3 D, | %15
 A,,D, D,4- | D,4 z2 |] %17

